flaticon/symbols/cancer.svg

<svg xmlns="http://www.w3.org/2000/svg" width="32" height="32" viewBox="0 0 24 24">
    <path d="M 12 0 C 5.382812 0 0 5.382812 0 12 C 0 18.617188 5.382812 24 12 24 C 18.617188 24 24 18.617188 24 12 C 24 5.382812 18.617188 0 12 0 Z M 12 23.171875 C 5.839844 23.171875 0.828125 18.160156 0.828125 12 C 0.828125 5.839844 5.839844 0.828125 12 0.828125 C 18.160156 0.828125 23.171875 5.839844 23.171875 12 C 23.171875 18.160156 18.160156 23.171875 12 23.171875 Z M 12 23.171875"/>
    <path d="M 18.503906 8.820312 C 18.265625 8.464844 17.949219 8.160156 17.585938 7.929688 C 16.453125 7.125 14.757812 6.621094 12.828125 6.621094 C 9.734375 6.621094 5.378906 7.648438 5.378906 9.929688 C 5.378906 10.160156 5.566406 10.34375 5.792969 10.34375 C 6.023438 10.34375 6.207031 10.160156 6.207031 9.929688 C 6.207031 8.511719 9.703125 7.449219 12.828125 7.449219 C 13.523438 7.449219 14.191406 7.527344 14.808594 7.660156 C 13.652344 8.113281 12.828125 9.238281 12.828125 10.550781 C 12.828125 12.261719 14.21875 13.65625 15.929688 13.65625 C 17.640625 13.65625 19.035156 12.261719 19.035156 10.550781 C 19.035156 10.496094 19.027344 10.441406 19.027344 10.386719 C 19.027344 10.371094 19.035156 10.359375 19.035156 10.34375 C 19.035156 9.796875 18.84375 9.285156 18.503906 8.820312 Z M 15.929688 12.828125 C 14.675781 12.828125 13.65625 11.804688 13.65625 10.550781 C 13.65625 9.296875 14.675781 8.277344 15.929688 8.277344 C 16.320312 8.277344 16.683594 8.375 17.003906 8.546875 C 17.367188 8.785156 17.65625 9.058594 17.863281 9.351562 C 18.078125 9.703125 18.207031 10.113281 18.207031 10.550781 C 18.207031 11.804688 17.1875 12.828125 15.929688 12.828125 Z M 15.929688 12.828125"/>
    <path d="M 18.207031 14.070312 C 17.976562 14.070312 17.792969 14.253906 17.792969 14.484375 C 17.792969 15.902344 14.296875 16.964844 11.171875 16.964844 C 10.476562 16.964844 9.808594 16.886719 9.191406 16.753906 C 10.347656 16.300781 11.171875 15.175781 11.171875 13.863281 C 11.171875 12.152344 9.78125 10.757812 8.070312 10.757812 C 6.359375 10.757812 4.964844 12.152344 4.964844 13.863281 C 4.964844 13.917969 4.972656 13.972656 4.972656 14.027344 C 4.972656 14.042969 4.964844 14.054688 4.964844 14.070312 C 4.964844 14.617188 5.15625 15.128906 5.496094 15.59375 C 5.734375 15.949219 6.050781 16.253906 6.414062 16.484375 C 7.546875 17.289062 9.242188 17.792969 11.171875 17.792969 C 14.265625 17.792969 18.621094 16.765625 18.621094 14.484375 C 18.621094 14.253906 18.433594 14.070312 18.207031 14.070312 Z M 8.070312 11.585938 C 9.324219 11.585938 10.34375 12.609375 10.34375 13.863281 C 10.34375 15.117188 9.324219 16.136719 8.070312 16.136719 C 7.679688 16.136719 7.316406 16.039062 6.996094 15.867188 C 6.632812 15.625 6.34375 15.355469 6.136719 15.0625 C 5.921875 14.710938 5.792969 14.300781 5.792969 13.863281 C 5.792969 12.609375 6.8125 11.585938 8.070312 11.585938 Z M 8.070312 11.585938"/>
</svg>

<svg xmlns="http://www.w3.org/2000/svg" width="32" height="32" viewBox="0 0 24 24">
    <path d="M12 0C5.383 0 0 5.383 0 12s5.383 12 12 12 12-5.383 12-12S18.617 0 12 0zm0 23.172C5.84 23.172.828 18.16.828 12 .828 5.84 5.84.828 12 .828 18.16.828 23.172 5.84 23.172 12c0 6.16-5.012 11.172-11.172 11.172zm0 0"/>
    <path d="M18.504 8.82a3.118 3.118 0 0 0-.918-.89c-1.133-.805-2.828-1.309-4.758-1.309-3.094 0-7.45 1.027-7.45 3.309a.414.414 0 0 0 .829 0c0-1.418 3.496-2.48 6.621-2.48.695 0 1.363.077 1.98.21a3.113 3.113 0 0 0-1.98 2.89c0 1.712 1.39 3.106 3.102 3.106a3.11 3.11 0 0 0 3.105-3.105c0-.055-.008-.11-.008-.164 0-.016.008-.028.008-.043 0-.547-.191-1.059-.531-1.524zm-2.574 4.008a2.276 2.276 0 1 1 1.074-4.281c.363.238.652.512.86.805.214.351.343.761.343 1.199a2.28 2.28 0 0 1-2.277 2.277zm0 0"/>
    <path d="M18.207 14.07a.412.412 0 0 0-.414.414c0 1.418-3.496 2.48-6.621 2.48a9.443 9.443 0 0 1-1.98-.21 3.113 3.113 0 0 0 1.98-2.89c0-1.712-1.39-3.106-3.102-3.106a3.11 3.11 0 0 0-3.105 3.105c0 .055.008.11.008.164 0 .016-.008.028-.008.043 0 .547.191 1.059.531 1.524.238.355.555.66.918.89 1.133.805 2.828 1.309 4.758 1.309 3.094 0 7.45-1.027 7.45-3.309a.414.414 0 0 0-.415-.414zM8.07 11.586a2.276 2.276 0 1 1-1.074 4.281 3.23 3.23 0 0 1-.86-.804 2.296 2.296 0 0 1-.343-1.2 2.28 2.28 0 0 1 2.277-2.277zm0 0"/>
</svg>
